X: 1
T: Det var en l\ordag aften
O: Dansk folkvisa
R: also waltz
M: 2/4
L: 1/8
K: F
|: C | "F"FF CC | A2 FA | "C7"GE CE | "F"F2 z :|
w: Det var en l\or-dag af-ten jeg sad og vent-ed dig;
A | "F"AA cA | "C7"GG cG | "F"FF "G7"dd | "C"c2 z ||
w: du lov-ed mig at kom-me vist, men kom dog ej til mig,
B "F"AA cA | "C7"AG BG | FE DE | "F"F2 z |]
w: du lov-ed mig at kom-me vist, men kom dog ej til mig.
%
W:2.
W:  Jeg lagde mig p\aa sengen og gr\aed s\aa bitterlig,
W:  og hver en gang at d\oren gik, jeg troede, det var dig.
W:3.
W:  Jeg stod op s\ondag morgen of flettede mit h\aar,
W:  s\aa gik jeg mig til kirken hen og om den kirkeg\aard.
W:4.
W:  Men du kom ej til kirke og ej i kirken ind,
W:  for du har f\aaet en anden k\aer og slaget mig at sing.
W:5.
W:  Jeg gik mig hjem s\aa ene henad den kirkesti,
W:  og hvert et spor p\aa stien var, der faldt min t\aare i.
W:6.
W: De r\ode b\aand og sk\onne, som du engang mig gav
W:  dem b\aerer jeg ret aldrig mer, jeg stunder til min grav.
W:7.
W:  Hvor kan man plukke roser, hvor ingen roser gror!
W:  Hvor kan man finde k\aerlighed, hvor k\aerlighed ej bor!
W:8.
W:  Jeg vilde roser plukke, jeg plukker ingen fler,
W:  jeg elsked dig s\aa inderlig, jeg elsker aldrig mer.
